X:35
T:Beaumont Rag
C:David Harvey
A:AKUS Live
N: Transcribed by Mike Stangeland
R:bluegrass
L:1/8
Q:1/4=220
M:4/4
K:D
z8 | "A"gf gf e2 ed | cd cB A4 | "D"=f^f =f^f dB Ad | BA FG A4 | "A"EF GA zB AG | 
EF GA zB AF | "D"DE FG AB AF | BA FA z4 | "A"gf gf e2 ed | cd cB AB Af | "D"=f^f =f^f dB Ad | 
BA FE DE =F^F | "G"GF GA Bd ed | "D"=fd ef ed BA | "A"dB Ad BA FE | "D"D2 A,2 B,2 =C2 | 
"A"CE AC EB CE | AC EB CE A2 | "D"DF AD FB DF | AD FB DF A2 | "A"CE AC EB CE | 
AC EB CE A2 | "D"DF G,^G, A,B, =C^C | DE FE D2 B,=C | "A"CE AC EB CE | AC EB CE A2 | 
"D"DF AD FB DF | "D"AD FB DF A2 | "G"GF GA Bd ed | "D"=fd ef ed BA | "A"dB Ad BA FE | "D"D8 || 

